X: 1
T: Helliar Holm
M: 2/4
L: 1/8
R: polka
K: Gmaj
|: B,/C/ | DG FA | Gd c/B/A/G/ | Fe d/c/B/A/ | Gg gB,/C/ |
DG FA | Gd c/B/A/G/ | FE/D/ cF | GG G :|
d/c/ | BG Dd/c/ | BG DB,/C/ | DG Bg| f2- fc/B/ |
cA Dc/B/ | cA DD/E/ | FA ce |d2- dd/c/ |
BG Dd/c/ | BG DD/C/ | B,D Gf | e2- ee/f/ |
gd BG | E/F/G/E/ CB,/C/ | DG FA | G2- G ||
